!!!OTL: DORT UNTEN IN DER GRUENEN SEE
!!!ARE: Europa, Mitteleuropa, Deutschland, Mainz
!!!SCT: K2169B
!!!YEM: Copyright 1995, estate of Helmut Schaffrath.
**kern
*ICvox
*Ivox
*M4/4
*k[b-]
*F:
{4f
=1
4cc
4cc
4dd
4dd
=2
4cc
4cc
4a
4r}
=3
{4cc
4cc
4dd
4dd
=4
2cc
4a}
{4f
=5
4cc
4cc
4dd
4dd
=6
4cc
4cc
4a
4r}
=7
{4cc
4cc
4dd
4dd
=8
2cc
4a
4r}
=9
{4cc
4a
4cc
4a
=10
4cc
4ff
4dd
8r}
{8dd
=11
4cc
8a
8dd
4cc
8a
8a
=12
4cc
4dd
4cc}
==
!!!AGN: Kinder - Lied, Reigen, Tanz - Spiel
!!!ONB: ESAC (Essen Associative Code) Database: KINDER
!!!AMT: simple quadruple
!!!AIN: vox
!!!EED: Helmut Schaffrath
!!!EEV: 1.0
*-
